!!!OTL: Der heimkehrende Soldat Ein Husar kommt aus dem Kriege, hurrah!
!!!ARE: Europa, Mitteleuropa, Deutschland (BRD), Rheinland
!!!YOR: 5, S. 160
!!    ????
!!!SCT: Q0103H
!!!YEM: Copyright 1995, estate of Helmut Schaffrath.
**kern
*ICvox
*Ivox
*M6/8
*k[f#]
*G:
{16d
16d
=1
4g
8g
8g
8b
8b
=2
4b
8a
4a
8cc
=3
4.b
4.r}
=4
{4dd
8dd
8dd
8cc
8b
=5
4cc
8cc
4cc}
{8dd
=6
8b
8b
8b
8b
8g
8g
=7
8b
8a
8a
4a}
{8cc
=8
4b
8b
4a
8a
=9
[4.g
8g]
8r}
==
!!!AGN: Ballade, Ehe, Betrug
!! Laengere Fassung (Text eingeklammert) kodiert.
!!    Anhaengsel; letzte Zeile = Refrain.
!!!ONB: ESAC (Essen Associative Code) Database: BALLADE
!!!AMT: compound duple
!!!AIN: vox
!!!EED: Helmut Schaffrath
!!!EEV: 1.0
*-
